X:1
T:Credo, 88.88.88
T:Credo, 88.88.88
T:John Stainer, 1875
T:Public Domain Courtesy of the Cyber Hymnal™
C:John Stainer, 1875
Z:Public Domain
Z:Courtesy of the Cyber Hymnal™
%%score ( 1 2 ) ( 3 4 )
L:1/8
Q:1/4=112
M:4/4
K:Eb
V:1 treble 
V:2 treble 
V:3 bass 
V:4 bass 
V:1
 G2 | [DG]2 G2 G2 [Gc]2 | [F=B]2 [Ec]2 [DG]2 [=B,F]2 | [CE]2 [EG]2 [GB]2 [FA]2 | %4
 [EG]2 [DF]2 E2 E2 | [EA]3 [EA] [EG]2 E2 | [Ec]2 [Ec]2 [Ec]2 E2 | [CF]2 [FA]2 [FA]2 [EG]2 | %8
 [CE]2 [DF]2 [DG]2 z2 ||[K:C][Q:1/4=110] G2 G>G c3 [Ec] | [GB]2 [FA]2 [EG]2 [EG]2 | %11
 [Ec]3 [Ec] [Fc]2 [^Fd]2 | [Ge]2 [Gd]2 [Gc]2 |] %13
V:2
 G2 | x2 G2 G2 x2 | x8 | x8 | x4 E2 E2 | x6 E2 | x6 E2 | x8 | x8 ||[K:C] G2 G>G c3 x | x8 | x8 | %12
 x6 |] %13
V:3
 G,2 | [G,=B,]2 [F,B,]2 [E,C]2 [E,C]2 | [D,D]2 [C,G,]2 [=B,,G,]2 [G,,G,]2 | %3
 [C,G,]2 [C,C]2 [A,,C]2 [A,,C]2 | [B,,B,]2 [B,,A,]2 [E,G,]2 [E,G,]2 | %5
 [C,A,]3 [C,A,] [B,,B,]2 [B,,G,]2 | [A,,A,]2 A,2 [G,B,]2 [G,B,]2 | [A,C]2 [F,C]2 [D,B,]2 [E,B,]2 | %8
 [A,C]2 [A,C]2 [G,=B,]2 z2 ||[K:C] G,2 G,>G, C3 [A,C] | [E,C]2 [F,C]2 [C,C]2 C2 | %11
 [_B,C]3 [B,C] [A,C]2 [_A,C]2 | [G,C]2 (B,F) [C,E]2 |] %13
V:4
 G,2 | x8 | x8 | x8 | x8 | x8 | x2 A,2 x4 | x8 | x8 ||[K:C] G,2 G,>G, C3 x | x6 C2 | x8 | %12
 x2 G,2 x2 |] %13

